X:1
T:[ID 2-105]
T:[ID 2-105]
T:Bezeichnung standardisiert: Polonaise Polonoise
T:Urheber unbekannt Datum in der hier transkribierten schriftlichen Quelle: 1767
C:Urheber unbekannt
C:Datum in der hier transkribierten schriftlichen Quelle: 1767
L:1/8
M:3/4
K:Bb
V:1 treble 
V:1
 B2 d2 f2 | ba/b/ b/a/g/f/ b2 | ab/g/ f2 e2 | dc/B/ c/B/A/G/ F/E/D/C/ | B, d2 e2 f | B, g2 a2 b | %6
 f/d/e/c/{c} B4 :: F2 A2 c2 | f=e/f/ a/g/f/e/ f2 | d/e/f/d/ c2 B2 | A/B/c/A/"^sic" E2 F2 | %11
 F/A/c/f/ (f e2) d | F/A/c/e/ (e d2) c | F/A/c/f/ (f e2) d | F/A/c/e/ (e d2) c | B, (B2 c2) d | %16
 B, (d2 e2) f | B, g2 a2 b | e/d/e/c/{c} B4 :| %19

